dist/imgs/home/menuicons/aboutme.svg

<svg id="Layer_1" data-name="Layer 1" xmlns="http://www.w3.org/2000/svg" viewBox="0 0 512.1 335.9"><title>aboutme</title><path d="M197.6,238.3a83.06,83.06,0,1,0-97.2-1.1C42.1,249.8,0,285.7,0,328.1c0,53,65.6,95.9,146.6,95.9s146.6-42.9,146.6-95.9C293.2,286.9,253.4,251.8,197.6,238.3Zm-79.5-99.2a10.8,10.8,0,1,1-10.8,10.8A10.88,10.88,0,0,1,118.1,139.1Zm34.1,270.4-33-38.2,26.5-99.2a11.45,11.45,0,0,1,6.4-21.1,11.69,11.69,0,0,1,11.7,11.6,11.54,11.54,0,0,1-5.3,9.5l24,105Zm36-215a47.45,47.45,0,0,1-78.9-3.1c-2.4-7.1,2.5-10.2,7.5-5,6.9,11.3,18.8,19.2,33,19.2,12.9,0,23.8-6.6,31-16.2C185.8,185.1,191.7,190.1,188.2,194.5Zm-8.3-33.7A10.8,10.8,0,1,1,190.7,150,10.76,10.76,0,0,1,179.9,160.8Z" transform="translate(0 -88.1)" fill="#fff"/><path d="M495.1,182H273.8a16.94,16.94,0,0,1-16.9-16.9h0a16.94,16.94,0,0,1,16.9-16.9H495.1A16.94,16.94,0,0,1,512,165.1h0A16.94,16.94,0,0,1,495.1,182Z" transform="translate(0 -88.1)" fill="#fff"/><path d="M495.1,245.1H273.8a16.94,16.94,0,0,1-16.9-16.9h0a16.94,16.94,0,0,1,16.9-16.9H495.1A16.94,16.94,0,0,1,512,228.2h0A16.94,16.94,0,0,1,495.1,245.1Z" transform="translate(0 -88.1)" fill="#fff"/><path d="M495.1,303.5H330a16.94,16.94,0,0,1-16.9-16.9h0A16.94,16.94,0,0,1,330,269.7H495.2a16.94,16.94,0,0,1,16.9,16.9h0A17.09,17.09,0,0,1,495.1,303.5Z" transform="translate(0 -88.1)" fill="#fff"/><path d="M495.1,363.9H330A16.94,16.94,0,0,1,313.1,347h0A16.94,16.94,0,0,1,330,330.1H495.2A16.94,16.94,0,0,1,512.1,347h0A17.09,17.09,0,0,1,495.1,363.9Z" transform="translate(0 -88.1)" fill="#fff"/></svg>

<?xml version="1.0" encoding="utf-8"?>
<!-- Generator: Adobe Illustrator 23.0.3, SVG Export Plug-In . SVG Version: 6.00 Build 0)  -->
<svg version="1.1" id="Layer_1" xmlns="http://www.w3.org/2000/svg" xmlns:xlink="http://www.w3.org/1999/xlink" x="0px" y="0px"
	 viewBox="0 0 512 512" style="enable-background:new 0 0 512 512;" xml:space="preserve">
<style type="text/css">
	.st0{fill:#FFFFFF;}
</style>
<g>
	<path class="st0" d="M197.6,238.3c21.2-15,35.1-39.5,35.1-67.4c0-45.7-37.2-82.8-83-82.8c-45.9,0-83,37.1-83,82.8
		c0,27.2,13.4,51.2,33.7,66.3C42.1,249.8,0,285.7,0,328.1c0,53,65.6,95.9,146.6,95.9s146.6-42.9,146.6-95.9
		C293.2,286.9,253.4,251.8,197.6,238.3z M118.1,139.1c6,0,10.8,4.8,10.8,10.8s-4.9,10.8-10.8,10.8c-6,0-10.8-4.8-10.8-10.8
		C107.3,144,112.2,139.1,118.1,139.1z M152.2,409.5l-33-38.2l26.5-99.2c-3.1-2.1-5.3-5.5-5.3-9.5c0-6.4,5.2-11.6,11.7-11.6
		c6.4,0,11.7,5.2,11.7,11.6c0,4-2.2,7.4-5.3,9.5l24,105L152.2,409.5z M188.2,194.5c-8.7,11.8-22.6,19.6-38.4,19.6
		c-17.1,0-32.1-9.1-40.5-22.7c-2.4-7.1,2.5-10.2,7.5-5c6.9,11.3,18.8,19.2,33,19.2c12.9,0,23.8-6.6,31-16.2
		C185.8,185.1,191.7,190.1,188.2,194.5z M179.9,160.8c-6,0-10.8-4.8-10.8-10.8s4.9-10.8,10.8-10.8c6,0,10.8,4.8,10.8,10.8
		C190.8,155.9,185.9,160.8,179.9,160.8z"/>
	<g>
		<path class="st0" d="M495.1,182H273.8c-9.3,0-16.9-7.6-16.9-16.9l0,0c0-9.3,7.6-16.9,16.9-16.9h221.3c9.3,0,16.9,7.6,16.9,16.9
			l0,0C512,174.4,504.4,182,495.1,182z"/>
		<path class="st0" d="M495.1,245.1H273.8c-9.3,0-16.9-7.6-16.9-16.9l0,0c0-9.3,7.6-16.9,16.9-16.9h221.3c9.3,0,16.9,7.6,16.9,16.9
			l0,0C512,237.5,504.4,245.1,495.1,245.1z"/>
		<path class="st0" d="M495.1,303.5H330c-9.3,0-16.9-7.6-16.9-16.9l0,0c0-9.3,7.6-16.9,16.9-16.9h165.2c9.3,0,16.9,7.6,16.9,16.9
			l0,0C512,295.9,504.4,303.5,495.1,303.5z"/>
		<path class="st0" d="M495.1,363.9H330c-9.3,0-16.9-7.6-16.9-16.9l0,0c0-9.3,7.6-16.9,16.9-16.9h165.2c9.3,0,16.9,7.6,16.9,16.9
			l0,0C512,356.3,504.4,363.9,495.1,363.9z"/>
	</g>
</g>
</svg>
